X:1
T:Title
%%score { ( 1 4 ) | ( 2 3 ) }
L:1/8
M:6/4
K:Ab
V:1 bass nm="Grand Piano"
V:4 bass 
V:2 bass 
V:3 bass 
V:1
 z6 z4 [A,CE]2 | [A,CE]2 [E,A,C]2[K:treble] [A,CE]2 [CEA]2 [A,CE]2 [CEA]2 | c2 c2 B2 [CA]4 [CE]2 | %3
 [DF]2 [FA]2 [DF]2 [CE]2 [A,C]2 [CE]2 | [EA]2 [EB]2 [Ec]2 B4 Bc | d2 d2 d2 c2 c2 c2 | %6
 B2 B2 B2 A4 E2 | F2 [FA]2 [DF]2 [CE]2 [A,C]2 [CE]2 | A2 c2 B2 .[A,CA]6 | %9
 [B,G]2- [B,-EG-]2 [B,EG-]2 [EG]2 A2 B2 | [CA]2- [C-EA-]2 [C-EA-]2 [CEA]6 | %11
 [GB]2- [EG-B-]2 [EG-B-]2 [EGB]2 c2 d2 | [Ac]2- [EA-c-]2 [EA-c-]2 [EAc]6 | e2 e2 e2 e2 c2 A2 | %14
 [FA]2 [=EB]2 [FA]2 .F6 | E2 C2 E2 A2 E2 A2 | %16
[M:13/8] [Ac]2 [Ac]3 [GB]2 [CEA]-[CEA]-[CEA]- [CEA]3 |] %17
V:2
 z6 z4 A,,2 | A,,2 A,,2 A,,2 A,,2 A,,2 A,,2 | [E,A,E]2 [E,A,E]2 [E,G,D]2 [A,,A,]4 [A,,A,]2 | %3
 [D,A,]2 [D,A,]2 [D,A,]2 [A,,A,]2 [A,,E,]2 [A,,A,]2 | z6 z4 .G,2 | %5
 [G,B,E]2 [G,B,E]2 [G,B,E]2 [A,E]2 [A,E]2 [A,E]2 | [E,G,E]2 [E,G,D]2 [E,G,D]2 [F,A,C]4 [C,A,]2 | %7
 [D,A,D]2 [D,A,]2 [D,A,]2 [A,,A,]2 [A,,E,]2 [A,,A,]2 | [E,A,C]2 [E,A,E]2 [E,G,D]2 .A,,6 | %9
 E,2 E,2 E,2 [E,B,]2 C2 D2 | A,,2 A,,2 A,,2 .A,,6 | E,2 E,2 E,2 E,2[K:treble] A2 B2 | %12
 A,2 A,2 A,2 .A,6 | [A,C_G]2 [A,CG]2 [A,CG]2 [A,CG]2 [A,EG]2 [A,CG]2 | %14
 [D,D]2 [D,D]2 [D,D]2 .[D,A,D]6 | [E,A,C]2 [E,A,]2 [E,A,C]2 [E,CE]2 [E,A,C]2 [E,CE]2 | %16
[M:13/8] [E,E]2 [E,E]3 [E,D]2 [A,,A,]-[A,,A,]-[A,,A,]- [A,,A,]3 |] %17
V:3
 x12 | x12 | x12 | x12 | [C,A,]2 [B,,G,]2 [A,,A,]2 [E,G,E]4 [E,E]-[E,A,E] | x12 | x12 | x12 | x12 | %9
 x12 | x12 | x8[K:treble] x4 | x12 | x12 | x12 | x12 |[M:13/8] x13 |] %17
V:4
 x12 | x4[K:treble] x8 | x12 | x12 | x12 | x12 | x12 | x12 | x12 | .E6 z6 | .E6 z6 | .E6 z6 | %12
 .E6 z6 | x12 | x12 | x12 |[M:13/8] x13 |] %17

